X:85
T:Carolan's Concerto
T:Mrs. Power
C:Turlough Carolan
R:planxty
I:speed 300
M:C
K:D
d2ddd2cB|ABGA F2A2|E2A2 D2A2|Bcde dcBA|\
d2a2 fgaf|efge fgaf|gabg fdfa|gfed dcBA|\
(3Bcd Bd gBgB|AdAd fAfA|GBGB efed|c2Bc A3G|\
FGAF EFGE|FGAF GABG|A2d2 fedc|d4 d3||*
A|d2b2 agfe|d2a2 c2g2|B2e2 ABcd|ecBA d3f|\
edcB caaa|Bggg Afff|edcB caaa|Bggg bgbg|\
afaf edcB|cABG AFGE|DAFA DAFA|(3GFE BE (3GFE BA|\
FAdc BAGF|EFGA BcdB|A2d2 fedc|d4||**
M:C|
   These tunes were originally published in various issues of the
Irish Pipers' Club newsletter, Iris na bPiobairi, the Pipers' Review.
They were published in the hope of providing a few common tunes for
uilleann pipers, so it seems appropriate to reprint them here to give
them a wider exposure. 
						John Walsh
						walsh@math.ubca.ca
	From the article in the Review:
   The manuscript tunes given here are lesson pieces played in
Seattle. Many people from around the country have asked for the
inclusion of some tunes in the Review in order that a common
repertoire can be established. We know well how different regions have
dissimilar bodies of tunes. This is the first step. 
   The [first] two polkas were collected in Newmarket, Co. Cork in
1975 from the playing of local musicians. The reel "The One-Horned
Cow" (The Half-horned Cow) is after the playing of Liam Walsh, a
Waterford piper (see IPC tape #3). The Lodge Road is a set dance tune
after the playing of Sean Maguire, combined with some of the features of
the air in O'Neill's 1001 Gems. Miss Monaghan and the Irish Rover are
after the piping of Leo Rowsome. The double jig When the Cock Crows...
is rather faithful to Seamus Ennis' version, and the Mist on the
Valley is largely from the flute-playing of Charley Higgins, Drumkeerin,
Co. Leitrim. 
   Johnny Mickie's Slide is from the playing of Denis Brooks and is
copied from a manuscript of his. It also goes well when transposed in G.
Denis learned it while living in northwest Cork. 
	
	The final three polkas are from Denis Brooks, who associates them
with a great session that took place at the Top of Croom in West Cork whith
Peter Heelan, Sabra Daly and Seamus Creagh in 1988. They make a nice set.
--------------------------cut here---------------------------------------
You may need the following macros.  Add them to zmacros.tex if they are not
already there.
\def\Zubbzbb#1#2#3#4#5{\Ibu0{#1}{#5}3\qh0{#1}\qh0{#2}\enotes%
\grace\Zlz#3\egrace\notes\qh0{#4}\tqh0{#5}}%
\def\Zlbbzbb#1#2#3#4#5{\Ibl0{#1}{#5}3\qb0{#1}\qb0{#2}\enotes%
\grace\hskip -.5\noteskip\Zuz#3\egrace\notes\qb0{#4}\tqb0{#5}}%
\def\Zlbzbb#1#2#3#4{\Ibl0{#1}{#4}2\qb0{#1}\enotes%
\grace\hskip -.5\noteskip\Zuz#2\egrace\notes\qb0{#3}\tqb0{#4}}%
\def\Zubzbb#1#2#3#4{\Ibu0{#1}{#4}2\qh0{#1}\enotes%
\grace\Zlz#2\egrace\notes\qh0{#3}\tqh0{#4}}%
-----------------------------------------------------------------------
M:C|
<end>
<start>
